X: 13
T:Killimor Jig, The
M:6/8
L:1/8
C:Sen Ryan
R:Double Jig
K:G
E[|:DEF GFG|BAG ABc|d^cd fef|ded cAF|!
DEF GFG|BAG ABc|d^cd fed|1cAF G2E:|2cAF G2D|!
|:GBd ~g3|dgb gdB|GBd g2e|fed cAF|!
GBd ~g3|dgb gdB|GBd fed|1cAF G2D:|2cAF G2E|]!
